; generated by PrusaSlicer 2.6.0+win64 on 2023-10-20 at 06:30:55 UTC

; 

; external perimeters extrusion width = 0.42mm
; perimeters extrusion width = 0.42mm
; infill extrusion width = 0.42mm
; solid infill extrusion width = 0.42mm
; top infill extrusion width = 0.40mm
; support material extrusion width = 0.40mm
; first layer extrusion width = 0.42mm

;TYPE:Custom
G28
G1 Z20 F2000
M140 S50
M190 S50
PRINT_START
M104 S205
M109 S205
PRE_LINING
G21 ; set units to millimeters
G90 ; use absolute coordinates
M82 ; use absolute distances for extrusion
G92 E0
; Filament gcode
M107
;LAYER_CHANGE
;Z:0.15
;HEIGHT:0.15
G1 Z.15 F19200
G1 E-4 F2400
G92 E0
G1 X115.859 Y124.614 F19200
G1 E4 F2400
M204 S6000
;TYPE:Skirt/Brim
;WIDTH:0.42
G1 F1200
G1 X116.743 Y123.919 E4.0272
G1 X133.906 Y112.783 E4.522
G1 X135.331 Y112.056 E4.56069
G1 X136.297 Y111.747 E4.58522
G1 X146.728 Y110.175 E4.84034
G1 X148.424 Y110.049 E4.88147
G1 X168.416 Y110.654 E5.3652
G1 X169.256 Y110.72 E5.38558
G1 X170.372 Y110.957 E5.41317
G1 X172.101 Y111.644 E5.45817
G1 X173.366 Y112.515 E5.49531
G1 X174.463 Y113.64 E5.53331
G1 X189.491 Y135.822 E6.1813
G1 X190.021 Y136.738 E6.20689
G1 X190.52 Y138.001 E6.23973
G1 X190.748 Y139.007 E6.26468
G1 X190.836 Y139.857 E6.28535
G1 X190.803 Y141.172 E6.31716
G1 X188.135 Y167.17 E6.94922
G1 X187.86 Y168.479 E6.98157
G1 X187.547 Y169.38 E7.00464
G1 X186.29 Y171.501 E7.06427
G1 X185.467 Y172.366 E7.09315
G1 X169.136 Y187.117 E7.62538
G1 X168.107 Y187.915 E7.65687
G1 X165.876 Y188.965 E7.7165
G1 X163.845 Y189.309 E7.76632
G1 X134.552 Y189.953 E8.47494
G1 X132.724 Y189.775 E8.51936
G1 X131.006 Y189.217 E8.56305
G1 X129.548 Y188.387 E8.60362
G1 X128.298 Y187.277 E8.64405
G1 X111.417 Y168.328 E9.25781
G1 X110.502 Y167.134 E9.29419
G1 X109.377 Y164.575 E9.3618
G1 X109.159 Y162.496 E9.41236
G1 X109.221 Y161.701 E9.43165
G1 X113.266 Y129.605 E10.21403
G1 X113.453 Y128.604 E10.23866
G1 X113.951 Y127.197 E10.27476
G1 X114.49 Y126.221 E10.30172
G1 X115.146 Y125.343 E10.32823
G1 X115.817 Y124.657 E10.35144
M204 S8000
; printing object Pot_Leaf_Keychain.stl id:0 copy 0
;WIPE_START
G1 F15360
G1 X116.743 Y123.919 E10.17567
G1 X133.906 Y112.783 E7.13876
G1 X135.331 Y112.056 E6.9013
G1 X136.297 Y111.747 E6.75075
G1 X138.957 Y111.346 E6.35144
;WIPE_END
G92 E0
G1 X148.37 Y117.757 F19200
G1 E4 F2400
M204 S6000
;TYPE:Perimeter
G1 F1200
G1 X148.995 Y117.899 E4.0155
G1 X149.547 Y118.15 E4.03017
G1 X150.042 Y118.506 E4.04492
G1 X150.457 Y118.951 E4.05964
G1 X150.776 Y119.469 E4.07435
G1 X150.989 Y120.037 E4.08902
G1 X151.087 Y120.638 E4.10375
G1 X151.066 Y121.246 E4.11846
G1 X150.926 Y121.838 E4.13317
G1 X150.675 Y122.392 E4.14788
G1 X150.319 Y122.885 E4.16259
G1 X149.886 Y123.289 E4.17691
G1 X149.621 Y123.471 E4.18468
G1 X149.356 Y123.617 E4.192
G1 X149.077 Y123.739 E4.19936
G1 X148.787 Y123.83 E4.20671
G1 X148.489 Y123.895 E4.21409
G1 X148.187 Y123.928 E4.22144
G1 X147.882 Y123.933 E4.22882
G1 X147.565 Y123.906 E4.23651
G1 X146.987 Y123.77 E4.25087
G1 X146.433 Y123.517 E4.2656
G1 X145.94 Y123.163 E4.28028
G1 X145.536 Y122.729 E4.29462
G1 X145.354 Y122.466 E4.30236
G1 X145.208 Y122.199 E4.30972
G1 X145.086 Y121.92 E4.31708
G1 X144.995 Y121.63 E4.32443
G1 X144.93 Y121.332 E4.33181
G1 X144.895 Y121.015 E4.33952
G1 X144.916 Y120.423 E4.35385
G1 X145.055 Y119.831 E4.36856
G1 X145.307 Y119.277 E4.38328
G1 X145.662 Y118.783 E4.39799
G1 X146.108 Y118.368 E4.41272
G1 X146.625 Y118.049 E4.42741
G1 X147.195 Y117.835 E4.44213
G1 X147.8 Y117.737 E4.45695
G1 X148.31 Y117.755 E4.46929
M204 S8000
G1 E.46929 F2400
G92 E0
G1 X148.351 Y118.145 F19200
G1 E4 F2400
M204 S6000
;TYPE:External perimeter
G1 F1200
G1 X148.868 Y118.267 E4.01285
G1 X149.352 Y118.487 E4.02571
G1 X149.784 Y118.799 E4.0386
G1 X150.147 Y119.187 E4.05145
G1 X150.426 Y119.64 E4.06432
G1 X150.613 Y120.138 E4.07719
G1 X150.699 Y120.663 E4.09006
G1 X150.68 Y121.194 E4.10291
G1 X150.558 Y121.712 E4.11578
G1 X150.338 Y122.196 E4.12864
G1 X150.026 Y122.628 E4.14153
G1 X149.642 Y122.986 E4.15423
G1 X149.417 Y123.141 E4.16084
G1 X149.185 Y123.269 E4.16725
G1 X148.941 Y123.375 E4.17368
G1 X148.687 Y123.455 E4.18012
G1 X148.427 Y123.512 E4.18656
G1 X148.162 Y123.541 E4.19301
G1 X147.896 Y123.545 E4.19944
G1 X147.626 Y123.522 E4.20599
G1 X147.113 Y123.402 E4.21873
G1 X146.629 Y123.18 E4.23161
G1 X146.197 Y122.87 E4.24447
G1 X145.839 Y122.485 E4.25718
G1 X145.684 Y122.262 E4.26375
G1 X145.556 Y122.028 E4.2702
G1 X145.45 Y121.784 E4.27663
G1 X145.37 Y121.53 E4.28307
G1 X145.313 Y121.27 E4.28951
G1 X145.284 Y121 E4.29608
G1 X145.302 Y120.474 E4.30881
G1 X145.423 Y119.957 E4.32165
G1 X145.644 Y119.472 E4.33454
G1 X145.955 Y119.04 E4.34741
G1 X146.344 Y118.678 E4.36026
G1 X146.796 Y118.399 E4.37311
G1 X147.295 Y118.212 E4.386
G1 X147.824 Y118.126 E4.39896
G1 X148.291 Y118.143 E4.41026
M204 S8000
G1 X148.596 Y117.828 F19200
;WIPE_START
G1 F15360
G1 X148.868 Y118.267 E4.32266
G1 X149.352 Y118.487 E4.24374
G1 X149.784 Y118.799 E4.16464
G1 X150.147 Y119.187 E4.08577
G1 X150.426 Y119.64 E4.0068
G1 X150.613 Y120.138 E3.92784
G1 X150.699 Y120.663 E3.84887
G1 X150.68 Y121.194 E3.77
G1 X150.558 Y121.712 E3.69101
G1 X150.338 Y122.196 E3.61209
G1 X150.026 Y122.628 E3.53299
G1 X149.642 Y122.986 E3.45506
G1 X149.417 Y123.141 E3.4145
G1 X149.185 Y123.269 E3.37517
G1 X148.941 Y123.375 E3.33568
G1 X148.687 Y123.455 E3.29615
G1 X148.427 Y123.512 E3.25664
G1 X148.162 Y123.541 E3.21707
G1 X147.896 Y123.545 E3.17758
G1 X147.626 Y123.522 E3.13736
G1 X147.113 Y123.402 E3.05916
G1 X146.629 Y123.18 E2.98012
G1 X146.197 Y122.87 E2.90119
G1 X145.839 Y122.485 E2.82315
G1 X145.684 Y122.262 E2.78284
G1 X145.556 Y122.028 E2.74325
G1 X145.45 Y121.784 E2.70376
G1 X145.37 Y121.53 E2.66423
G1 X145.313 Y121.27 E2.62472
G1 X145.284 Y121 E2.58441
G1 X145.302 Y120.474 E2.50629
G1 X145.423 Y119.957 E2.42747
G1 X145.644 Y119.472 E2.34836
G1 X145.955 Y119.04 E2.26935
G1 X146.344 Y118.678 E2.19047
G1 X146.796 Y118.399 E2.11162
G1 X147.295 Y118.212 E2.03252
G1 X147.824 Y118.126 E1.95297
G1 X148.291 Y118.143 E1.8836
;WIPE_END
G1 E.41026 F2400
G92 E0
G1 X148.321 Y117.77 F19200
G1 X148.098 Y117.752
G1 X147.796 Y117.756
G1 X147.495 Y117.79
G1 X147.199 Y117.853
G1 X146.911 Y117.945
G1 X146.633 Y118.065
G1 X146.367 Y118.212
G1 X146.118 Y118.383
G1 X145.888 Y118.578
G1 X145.676 Y118.794
G1 X145.487 Y119.032
G1 X145.323 Y119.286
G1 X145.184 Y119.555
G1 X145.072 Y119.837
G1 X144.989 Y120.128
G1 X144.934 Y120.424
G1 X144.908 Y120.727
G1 X144.913 Y121.029
G1 X144.946 Y121.33
G1 X145.01 Y121.626
G1 X145.101 Y121.914
G1 X145.222 Y122.192
G1 X145.368 Y122.458
G1 X145.541 Y122.707
G1 X145.734 Y122.937
G1 X145.951 Y123.149
G1 X146.043 Y123.222
G1 X134.362 Y149.65
G1 X134.356 Y149.633
G1 E4 F2400
M204 S6000
;TYPE:Perimeter
G1 F1200
G1 X133.445 Y149.571 E4.02208
G1 X133.218 Y150.128 E4.03663
G1 X132.516 Y149.681 E4.05676
G1 X131.994 Y150.941 E4.08974
G1 X131.829 Y151.276 E4.09877
G1 X131.754 Y151.481 E4.10405
G1 X131.691 Y151.568 E4.10665
G1 X131.482 Y151.714 E4.11282
G1 X131.283 Y151.814 E4.11821
G1 X130.661 Y151.835 E4.13326
G1 X128.994 Y155.449 E4.22951
G1 X128.258 Y154.562 E4.25739
G1 X127.604 Y155.673 E4.28857
G1 X127.544 Y155.741 E4.29076
G1 X127.421 Y155.851 E4.29475
G1 X127.145 Y156.014 E4.3025
G1 X126.583 Y156.195 E4.31678
G1 X126.144 Y156.998 E4.33891
G1 X125.84 Y157.334 E4.34987
G1 X125.628 Y157.459 E4.35582
G1 X124.958 Y157.679 E4.37288
G1 X124.429 Y158.42 E4.3949
G1 X124.118 Y158.729 E4.4055
G1 X123.867 Y158.859 E4.41234
G1 X123.226 Y159.052 E4.42853
G1 X123.094 Y159.155 E4.43258
G1 X118.415 Y163.178 E4.58182
G1 X117.854 Y163.624 E4.59915
G1 X117.646 Y163.742 E4.60493
G1 X117.431 Y163.807 E4.61036
G1 X117.276 Y163.826 E4.61414
G1 X117.033 Y163.809 E4.62003
G1 X116.576 Y163.6 E4.63218
G1 X116.206 Y163.098 E4.64726
G1 X116.142 Y162.775 E4.65522
G1 X116.166 Y162.527 E4.66125
G1 X116.252 Y162.28 E4.66758
G1 X116.438 Y161.979 E4.67614
G1 X117.818 Y160.103 E4.73246
G1 X118.613 Y158.812 E4.76913
G1 X119.327 Y157.486 E4.80555
G1 X119.83 Y156.41 E4.83428
G1 X120.154 Y155.5 E4.85764
G1 X120.295 Y155.214 E4.86535
G1 X120.747 Y154.482 E4.88616
G1 X120.565 Y154.117 E4.89602
G1 X120.548 Y153.931 E4.90054
G1 X120.563 Y153.768 E4.9045
G1 X120.658 Y153.476 E4.91193
G1 X120.745 Y153.281 E4.91709
G1 X120.902 Y153.011 E4.92464
G1 X121.725 Y152.064 E4.95498
G1 X121.684 Y151.648 E4.96509
G1 X121.697 Y151.355 E4.97218
G1 X121.782 Y151.032 E4.98026
G1 X121.949 Y150.703 E4.98918
G1 X122.108 Y150.479 E4.99582
G1 X122.294 Y150.271 E5.00257
G1 X122.829 Y149.741 E5.02078
G1 X122.794 Y149.199 E5.03392
G1 X122.814 Y148.999 E5.03878
G1 X122.869 Y148.829 E5.0431
G1 X122.96 Y148.652 E5.04791
G1 X123.184 Y148.327 E5.05746
G1 X123.488 Y147.966 E5.06887
G1 X124.43 Y147.033 E5.10094
G1 X124.327 Y146.388 E5.11674
G1 X124.336 Y146.183 E5.1217
G1 X124.401 Y145.942 E5.12774
G1 X124.499 Y145.746 E5.13304
G1 X124.672 Y145.515 E5.14002
G1 X124.92 Y145.26 E5.14862
G1 X125.28 Y144.961 E5.15994
G1 X126.019 Y144.442 E5.18178
G1 X126.055 Y143.884 E5.1953
G1 X126.13 Y143.535 E5.20393
G1 X126.192 Y143.375 E5.20808
G1 X126.354 Y143.105 E5.2157
G1 X126.465 Y142.957 E5.22017
G1 X126.726 Y142.681 E5.22936
G1 X127.839 Y141.797 E5.26374
G1 X128.032 Y141.124 E5.28067
G1 X128.135 Y140.898 E5.28668
G1 X128.23 Y140.747 E5.29099
G1 X128.566 Y140.407 E5.30255
G1 X129.864 Y139.351 E5.34302
G1 X130.044 Y138.88 E5.35521
G1 X130.19 Y138.592 E5.36302
G1 X130.441 Y138.239 E5.3735
G1 X130.684 Y138.018 E5.38144
G1 X130.982 Y137.798 E5.3904
G1 X131.318 Y137.588 E5.39998
G1 X132.117 Y137.138 E5.42216
G1 X132.459 Y136.91 E5.4321
G1 X132.808 Y136.635 E5.44285
G1 X133.311 Y136.156 E5.45965
G1 X134.698 Y135.043 E5.50266
G1 X132.882 Y134.809 E5.54694
G1 X132.331 Y134.661 E5.56074
G1 X131.582 Y134.861 E5.57949
G1 X130.749 Y135.051 E5.60015
G1 X130.378 Y135.054 E5.60912
G1 X130.119 Y135.009 E5.61548
G1 X130.009 Y134.964 E5.61835
G1 X129.851 Y134.874 E5.62275
G1 X129.382 Y134.53 E5.63682
G1 X128.373 Y134.551 E5.66123
G1 X128.101 Y134.521 E5.66785
G1 X127.9 Y134.474 E5.67284
G1 X127.635 Y134.335 E5.68008
G1 X127.443 Y134.192 E5.68587
G1 X127.112 Y133.898 E5.69658
G1 X126.424 Y133.721 E5.71376
G1 X126.107 Y133.611 E5.72188
G1 X125.785 Y133.471 E5.73037
G1 X124.965 Y133.054 E5.75262
G1 X124.387 Y132.829 E5.76762
G1 X121.282 Y131.771 E5.84695
G1 X120.722 Y131.542 E5.86158
G1 X120.579 Y131.442 E5.8658
G1 X120.423 Y131.282 E5.8712
G1 X120.228 Y130.918 E5.88119
G1 X120.196 Y130.695 E5.88664
G1 X120.201 Y130.455 E5.89245
G1 X120.235 Y130.277 E5.89683
G1 X120.305 Y130.103 E5.90137
G1 X120.379 Y129.981 E5.90482
G1 X120.504 Y129.834 E5.90949
G1 X120.771 Y129.634 E5.91756
G1 X121.025 Y129.542 E5.92409
G1 X121.249 Y129.499 E5.92961
G1 X124.384 Y129.276 E6.00562
G1 X127.402 Y129.022 E6.07887
G1 X127.791 Y128.641 E6.09204
G1 X127.983 Y128.501 E6.09779
G1 X128.449 Y128.348 E6.10965
G1 X128.701 Y128.325 E6.11577
G1 X129.38 Y128.406 E6.13231
G1 X129.698 Y128.413 E6.14
G1 X130.486 Y128.161 E6.16001
G1 X130.951 Y128.072 E6.17146
G1 X131.433 Y128.033 E6.18316
G1 X132.098 Y128.045 E6.19925
G1 X132.5 Y128.015 E6.209
G1 X132.789 Y127.974 E6.21606
G1 X133.344 Y127.815 E6.23002
G1 X133.84 Y127.747 E6.24213
G1 X134.381 Y127.735 E6.25522
G1 X135.726 Y127.81 E6.2878
G1 X136.147 Y127.641 E6.29877
G1 X136.495 Y127.549 E6.30748
G1 X137.064 Y127.478 E6.32135
G1 X137.459 Y127.491 E6.33091
G1 X137.922 Y127.536 E6.34216
G1 X140.426 Y127.874 E6.40327
G1 X140.494 Y127.021 E6.42397
G1 X139.734 Y125.335 E6.4687
G1 X138.074 Y121.818 E6.56276
G1 X137.587 Y120.737 E6.59143
G1 X137.558 Y120.718 E6.59227
G1 X137.335 Y120.129 E6.6075
G1 X137.234 Y119.733 E6.61738
G1 X137.22 Y119.519 E6.62257
G1 X137.255 Y119.284 E6.62832
G1 X137.298 Y119.148 E6.63177
G1 X137.423 Y118.914 E6.63819
G1 X137.61 Y118.718 E6.64474
G1 X137.706 Y118.646 E6.64764
G1 X137.824 Y118.582 E6.65089
G1 X138.069 Y118.506 E6.65709
G1 X138.356 Y118.484 E6.66405
G1 X138.566 Y118.508 E6.66916
G1 X138.776 Y118.58 E6.67453
G1 X138.923 Y118.666 E6.67865
G1 X139.145 Y118.868 E6.68591
G1 X139.3 Y119.071 E6.69209
G1 X139.471 Y119.334 E6.69968
G1 X141.432 Y123.216 E6.80486
G1 X142.43 Y121.46 E6.85371
G1 X142.887 Y120.76 E6.87393
G1 X143.377 Y120.104 E6.89373
G1 X143.906 Y119.486 E6.9134
G1 X144.434 Y118.947 E6.93165
G1 X144.989 Y118.46 E6.94951
G1 X145.552 Y118.04 E6.9665
G1 X146.118 Y117.691 E6.98258
G1 X146.678 Y117.414 E6.99769
G1 X147.226 Y117.212 E7.01182
G1 X147.756 Y117.085 E7.025
G1 X148.263 Y117.032 E7.03733
G1 X148.731 Y117.048 E7.04866
G1 X149.191 Y117.135 E7.05998
G1 X149.608 Y117.285 E7.0707
G1 X149.996 Y117.502 E7.08145
G1 X150.355 Y117.785 E7.09251
G1 X150.682 Y118.134 E7.10408
G1 X150.974 Y118.552 E7.11641
G1 X151.226 Y119.035 E7.12959
G1 X151.433 Y119.581 E7.14371
G1 X151.593 Y120.186 E7.15884
G1 X151.7 Y120.842 E7.17491
G1 X151.809 Y122.313 E7.21058
G1 X153.458 Y121.186 E7.25889
G1 X153.827 Y120.985 E7.26905
G1 X154.076 Y120.92 E7.27527
G1 X154.707 Y120.885 E7.29055
G1 X155.477 Y120.484 E7.31155
G1 X156.098 Y120.094 E7.32928
G1 X156.464 Y119.95 E7.33879
G1 X156.751 Y119.896 E7.34585
G1 X157.082 Y119.9 E7.35386
G1 X157.46 Y119.982 E7.36321
G1 X157.784 Y120.157 E7.37212
G1 X158.812 Y119.924 E7.39761
G1 X160.116 Y119.72 E7.42953
G1 X161.887 Y119.492 E7.47271
G1 X162.337 Y119.452 E7.48364
G1 X162.568 Y119.463 E7.48923
G1 X163.497 Y119.19 E7.51265
G1 X164.522 Y118.854 E7.53874
G1 X166.039 Y118.333 E7.57753
G1 X167.426 Y117.822 E7.61328
G1 X167.871 Y117.68 E7.62458
G1 X168.158 Y117.639 E7.63159
G1 X168.38 Y117.653 E7.63697
G1 X168.723 Y117.759 E7.64565
G1 X168.908 Y117.897 E7.65123
G1 X169.04 Y118.046 E7.65604
G1 X169.132 Y118.224 E7.66089
G1 X169.165 Y118.396 E7.66513
G1 X169.151 Y118.58 E7.66959
G1 X169.083 Y118.798 E7.67511
G1 X168.986 Y118.952 E7.67951
G1 X168.796 Y119.168 E7.68647
G1 X166.14 Y121.473 E7.77152
G1 X164.591 Y122.787 E7.82065
G1 X163.714 Y123.474 E7.84759
G1 X163.586 Y123.356 E7.8518
G1 X162.705 Y124.311 E7.88322
G1 X162.729 Y124.344 E7.88421
G1 X162.51 Y124.542 E7.89135
G1 X162.239 Y124.727 E7.89929
G1 X161.718 Y124.998 E7.91349
G1 X161.426 Y125.381 E7.92514
G1 X161.164 Y125.628 E7.93385
G1 X161 Y125.723 E7.93843
G1 X160.214 Y126.053 E7.95905
G1 X159.88 Y126.532 E7.97317
G1 X159.707 Y126.703 E7.97905
G1 X159.471 Y126.854 E7.98583
G1 X159.271 Y126.95 E7.9912
G1 X158.589 Y127.196 E8.00873
G1 X157.311 Y127.706 E8.04201
G1 X156.505 Y127.921 E8.06218
G1 X156.146 Y128.311 E8.075
G1 X154.722 Y129.373 E8.11796
G1 X156.912 Y129.632 E8.17129
G1 X157.567 Y129.739 E8.18734
G1 X157.902 Y129.832 E8.19575
G1 X158.4 Y130.184 E8.2105
G1 X158.566 Y129.953 E8.21738
G1 X159.173 Y129.934 E8.23207
G1 X160.302 Y129.787 E8.25961
G1 X160.663 Y129.79 E8.26834
G1 X160.842 Y129.813 E8.2727
G1 X161.185 Y129.898 E8.28125
G1 X161.539 Y130.081 E8.29089
G1 X161.777 Y130.271 E8.29826
G1 X162.174 Y130.74 E8.31312
G1 X163.133 Y130.728 E8.33632
G1 X163.615 Y130.75 E8.34799
G1 X164.525 Y130.878 E8.37021
G1 X164.892 Y130.979 E8.37942
G1 X165.104 Y131.073 E8.38503
G1 X165.275 Y131.206 E8.39027
G1 X165.632 Y131.639 E8.40384
G1 X166.518 Y131.614 E8.42528
G1 X166.862 Y131.628 E8.43361
G1 X167.198 Y131.678 E8.44183
G1 X167.461 Y131.751 E8.44843
G1 X167.802 Y131.908 E8.45751
G1 X168.006 Y132.057 E8.46362
G1 X168.18 Y132.249 E8.46989
G1 X168.384 Y132.723 E8.48237
G1 X169.644 Y132.841 E8.51298
G1 X170.003 Y132.913 E8.52184
G1 X170.427 Y133.062 E8.53271
G1 X170.686 Y133.219 E8.54003
G1 X170.855 Y133.37 E8.54551
G1 X171.213 Y133.805 E8.55914
G1 X171.941 Y133.892 E8.57687
G1 X172.257 Y133.953 E8.58465
G1 X172.702 Y134.102 E8.596
G1 X172.959 Y134.268 E8.6034
G1 X173.146 Y134.47 E8.61006
G1 X173.426 Y134.863 E8.62173
G1 X174.465 Y135.015 E8.64713
G1 X174.78 Y135.112 E8.6551
G1 X175.183 Y135.323 E8.6661
G1 X175.267 Y135.394 E8.66876
G1 X175.453 Y135.597 E8.67542
G1 X175.727 Y135.97 E8.68661
G1 X176.485 Y136.095 E8.70519
G1 X176.698 Y136.153 E8.71053
G1 X176.959 Y136.258 E8.71733
G1 X177.045 Y136.309 E8.71975
G1 X177.268 Y136.507 E8.72696
G1 X177.644 Y137.007 E8.74209
G1 X178.735 Y137.423 E8.77033
G1 X181.553 Y138.671 E8.84487
G1 X182.474 Y139.058 E8.86903
G1 X183.045 Y139.261 E8.88369
G1 X183.288 Y139.371 E8.89014
